app/svg/circuit_mexicocity_buildings.svg

<svg id="buildings" xmlns="http://www.w3.org/2000/svg" viewBox="0 0 755 451">
  <title>circuit_mexicocity_buildings</title>
  <path id="building_paddock" data-name="building paddock" d="M487.3,97a4,4,0,1,0-4,4A4,4,0,0,0,487.3,97ZM500,97a4,4,0,1,0-4,4A4,4,0,0,0,500,97Zm-50,0a4,4,0,1,0-4,4A4,4,0,0,0,450,97Zm84,0a4,4,0,1,0-4,4A4,4,0,0,0,534,97ZM412.7,97a4,4,0,1,0-4,4,4,4,0,0,0,4-4Zm-37.4,0a4,4,0,1,0-4,4A4,4,0,0,0,375.3,97Zm-38,0a4,4,0,1,0-4,4A4,4,0,0,0,337.3,97Zm240.1,6.3H268.1a3.59,3.59,0,0,1-3.6-3.6V94.1a3.59,3.59,0,0,1,3.6-3.6H577.4a3.59,3.59,0,0,1,3.6,3.6v5.6A3.59,3.59,0,0,1,577.4,103.3Z" style="fill: none;stroke: #fff;stroke-miterlimit: 10;stroke-width: 2px"/>
  <path id="building_fans" data-name="building fans" d="M697.3,154.5a4,4,0,1,0-4,4h0a4,4,0,0,0,4-4Zm0,24a4,4,0,1,0-4,4h0a4,4,0,0,0,4-4Zm0,17a4,4,0,1,0-4,4h0a4,4,0,0,0,4-4Zm0,27.2a4,4,0,1,0-4,4h0a4,4,0,0,0,4-4ZM615.8,224a4,4,0,1,0-4,4h0a4,4,0,0,0,4-4ZM474.3,265a4,4,0,1,0-4,4h0a4,4,0,0,0,4-4Zm0-64.5a4,4,0,1,0-4,4h0a4,4,0,0,0,4-4Zm0-85a4,4,0,1,0-4,4h0a4,4,0,0,0,4-4Zm30.2,0a4,4,0,1,0-4,4h0a4,4,0,0,0,4-4Zm30.2,0a4,4,0,1,0-4,4h0a4,4,0,0,0,4-4ZM528.3,265a4,4,0,1,0-4,4h0a4,4,0,0,0,4-4Zm-54,19.3a4,4,0,1,0-4,4h0a4,4,0,0,0,4-4ZM454,114.7a7.73,7.73,0,0,1,7.8-7.7l76.5.1a13.38,13.38,0,0,1,10.5,4.8l22.7,27a15.23,15.23,0,0,0,11.6,5.4l114.14.52a4.24,4.24,0,0,1,4.26,4.24v97.2a4.24,4.24,0,0,1-4.24,4.24H602.8a7.32,7.32,0,0,0-7.3,7.3v64.8l-122,37.1a14.88,14.88,0,0,1-7.9,2.6l-4.1.1a6.9,6.9,0,0,1-7-6.7L454,164.5Z" style="fill: none;stroke: #fff;stroke-miterlimit: 10;stroke-width: 2px"/>
  <path id="building_facilities" data-name="building facilities" d="M245,119a4,4,0,1,1,4-4A4,4,0,0,1,245,119Zm43.7-4.3a4,4,0,1,0-4,4,4,4,0,0,0,4-4Zm48.6.6a4,4,0,1,0-4,4A4,4,0,0,0,337.3,115.3Zm16,0a4,4,0,1,0-4,4A4,4,0,0,0,353.3,115.3Zm214,0a4,4,0,1,0-4,4A4,4,0,0,0,567.3,115.3Zm-170.8,0a4,4,0,1,0-4,4A4,4,0,0,0,396.5,115.3ZM577,123.7H234.3a4.27,4.27,0,0,1-4.3-4.3v-8.6a4.27,4.27,0,0,1,4.3-4.3H577a4.27,4.27,0,0,1,4.3,4.3v8.6A4.27,4.27,0,0,1,577,123.7ZM402.8,233.3a4,4,0,1,0-4,4,4,4,0,0,0,4-4Zm12-.3a4,4,0,1,0-4,4,4,4,0,0,0,4-4Zm11.6,9.5H395.7a5.12,5.12,0,0,1-5.1-5.1V206.8a5.12,5.12,0,0,1,5.1-5.1h30.7a5.12,5.12,0,0,1,5.1,5.1v30.6A5,5,0,0,1,426.4,242.5Z" style="fill: none;stroke: #fff;stroke-miterlimit: 10;stroke-width: 2px"/>
  <g id="building_media" data-name="building media">
    <path d="M338.8,229.3a4,4,0,1,0-4,4,4,4,0,0,0,4-4Z" style="fill: none;stroke: #fff;stroke-miterlimit: 10;stroke-width: 2px"/>
    <path d="M338.8,216a4,4,0,1,0-4,4,4,4,0,0,0,4-4Z" style="fill: none;stroke: #fff;stroke-miterlimit: 10;stroke-width: 2px"/>
    <rect x="324.1" y="185.1" width="46.9" height="54.4" rx="5.1" ry="5.1" style="fill: none;stroke: #fff;stroke-miterlimit: 10;stroke-width: 2px"/>
  </g>
</svg>

<?xml version="1.0" encoding="utf-8"?>
<!-- Generator: Adobe Illustrator 21.0.2, SVG Export Plug-In . SVG Version: 6.00 Build 0)  -->
<svg version="1.1" id="buildings" xmlns="http://www.w3.org/2000/svg" xmlns:xlink="http://www.w3.org/1999/xlink" x="0px" y="0px"
	 viewBox="0 0 755 451" style="enable-background:new 0 0 755 451;" xml:space="preserve">
<style type="text/css">
	.st0{fill:none;stroke:#FFFFFF;stroke-width:2;stroke-miterlimit:10;}
</style>
<title>circuit_mexicocity_buildings</title>
<path id="building_paddock" class="st0" d="M487.3,97c0-2.2-1.8-4-4-4s-4,1.8-4,4s1.8,4,4,4S487.3,99.2,487.3,97z M500,97
	c0-2.2-1.8-4-4-4s-4,1.8-4,4s1.8,4,4,4S500,99.2,500,97z M450,97c0-2.2-1.8-4-4-4s-4,1.8-4,4s1.8,4,4,4S450,99.2,450,97z M534,97
	c0-2.2-1.8-4-4-4s-4,1.8-4,4s1.8,4,4,4S534,99.2,534,97z M412.7,97c0-2.2-1.8-4-4-4s-4,1.8-4,4s1.8,4,4,4
	C410.9,101,412.7,99.2,412.7,97C412.7,97,412.7,97,412.7,97L412.7,97z M375.3,97c0-2.2-1.8-4-4-4s-4,1.8-4,4s1.8,4,4,4
	S375.3,99.2,375.3,97z M337.3,97c0-2.2-1.8-4-4-4s-4,1.8-4,4s1.8,4,4,4S337.3,99.2,337.3,97z M577.4,103.3H268.1
	c-2,0-3.6-1.6-3.6-3.6v-5.6c0-2,1.6-3.6,3.6-3.6h309.3c2,0,3.6,1.6,3.6,3.6v5.6C581,101.7,579.4,103.3,577.4,103.3z"/>
<path id="building_fans" class="st0" d="M697.3,153.5c0-2.2-1.8-4-4-4s-4,1.8-4,4c0,2.2,1.8,4,4,4l0,0
	C695.5,157.5,697.3,155.7,697.3,153.5L697.3,153.5z M697.3,178.5c0-2.2-1.8-4-4-4s-4,1.8-4,4c0,2.2,1.8,4,4,4l0,0
	C695.5,182.5,697.3,180.7,697.3,178.5L697.3,178.5z M697.3,195.5c0-2.2-1.8-4-4-4s-4,1.8-4,4c0,2.2,1.8,4,4,4l0,0
	C695.5,199.5,697.3,197.7,697.3,195.5L697.3,195.5z M697.3,222.7c0-2.2-1.8-4-4-4s-4,1.8-4,4s1.8,4,4,4l0,0
	C695.5,226.7,697.3,224.9,697.3,222.7L697.3,222.7z M615.8,224c0-2.2-1.8-4-4-4s-4,1.8-4,4c0,2.2,1.8,4,4,4l0,0
	C614,228,615.8,226.2,615.8,224L615.8,224z M474.3,265c0-2.2-1.8-4-4-4s-4,1.8-4,4s1.8,4,4,4l0,0C472.5,269,474.3,267.2,474.3,265
	L474.3,265z M474.3,200.5c0-2.2-1.8-4-4-4s-4,1.8-4,4c0,2.2,1.8,4,4,4l0,0C472.5,204.5,474.3,202.7,474.3,200.5L474.3,200.5z
	 M474.3,115.5c0-2.2-1.8-4-4-4s-4,1.8-4,4c0,2.2,1.8,4,4,4l0,0C472.5,119.5,474.3,117.7,474.3,115.5L474.3,115.5z M504.5,115.5
	c0-2.2-1.8-4-4-4c-2.2,0-4,1.8-4,4c0,2.2,1.8,4,4,4l0,0C502.7,119.5,504.5,117.7,504.5,115.5L504.5,115.5z M534.7,115.5
	c0-2.2-1.8-4-4-4s-4,1.8-4,4c0,2.2,1.8,4,4,4l0,0C532.9,119.5,534.7,117.7,534.7,115.5L534.7,115.5z M528.3,265c0-2.2-1.8-4-4-4
	s-4,1.8-4,4s1.8,4,4,4l0,0C526.5,269,528.3,267.2,528.3,265L528.3,265z M474.3,284.3c0-2.2-1.8-4-4-4s-4,1.8-4,4c0,2.2,1.8,4,4,4
	l0,0C472.5,288.3,474.3,286.5,474.3,284.3L474.3,284.3z M454,114.7c0-4.3,3.5-7.7,7.8-7.7l76.5,0.1c4-0.1,7.9,1.7,10.5,4.8l22.7,27
	c2.9,3.4,7.1,5.4,11.6,5.4l118.4-0.5v106.7h-98.7c-4,0-7.3,3.2-7.3,7.2v64.9l-122,37.1c-2.3,1.6-5.1,2.5-7.9,2.6l-4.1,0.1
	c-3.8,0.1-6.9-3-7-6.7L454,164.5V114.7z"/>
<path id="building_facilities" class="st0" d="M245,119c-2.2,0-4-1.8-4-4s1.8-4,4-4s4,1.8,4,4S247.2,119,245,119z M288.7,114.7
	c0-2.2-1.8-4-4-4s-4,1.8-4,4s1.8,4,4,4C286.9,118.7,288.7,116.9,288.7,114.7C288.7,114.7,288.7,114.7,288.7,114.7L288.7,114.7z
	 M337.3,115.3c0-2.2-1.8-4-4-4s-4,1.8-4,4s1.8,4,4,4S337.3,117.5,337.3,115.3z M353.3,115.3c0-2.2-1.8-4-4-4s-4,1.8-4,4s1.8,4,4,4
	S353.3,117.5,353.3,115.3z M557.3,115.3c0-2.2-1.8-4-4-4c-2.2,0-4,1.8-4,4s1.8,4,4,4C555.5,119.3,557.3,117.5,557.3,115.3z
	 M396.5,115.3c0-2.2-1.8-4-4-4s-4,1.8-4,4s1.8,4,4,4S396.5,117.5,396.5,115.3z M338.8,229.3c0-2.2-1.8-4-4-4s-4,1.8-4,4s1.8,4,4,4
	C337,233.3,338.8,231.5,338.8,229.3C338.8,229.3,338.8,229.3,338.8,229.3L338.8,229.3z M338.8,216c0-2.2-1.8-4-4-4s-4,1.8-4,4
	s1.8,4,4,4C337,220,338.8,218.2,338.8,216C338.8,216,338.8,216,338.8,216L338.8,216z M365.9,239.5h-36.7c-2.8,0-5.1-2.3-5.1-5.1
	v-44.2c0-2.8,2.3-5.1,5.1-5.1h36.7c2.8,0,5.1,2.3,5.1,5.1v44.2C371,237.2,368.7,239.5,365.9,239.5z M577,123.7H234.3
	c-2.4,0-4.3-1.9-4.3-4.3v-8.6c0-2.4,1.9-4.3,4.3-4.3H577c2.4,0,4.3,1.9,4.3,4.3v8.6C581.3,121.8,579.4,123.7,577,123.7z"/>
<g id="building_media">
	<path class="st0" d="M402.8,233.3c0-2.2-1.8-4-4-4s-4,1.8-4,4s1.8,4,4,4C401,237.3,402.8,235.5,402.8,233.3
		C402.8,233.3,402.8,233.3,402.8,233.3L402.8,233.3z"/>
	<path class="st0" d="M414.8,233c0-2.2-1.8-4-4-4s-4,1.8-4,4s1.8,4,4,4C413,237,414.8,235.2,414.8,233
		C414.8,233,414.8,233,414.8,233L414.8,233z"/>
	<path class="st0" d="M426.4,242.5h-30.7c-2.8,0-5.1-2.3-5.1-5.1v-30.6c0-2.8,2.3-5.1,5.1-5.1h30.7c2.8,0,5.1,2.3,5.1,5.1v30.6
		C431.6,240.2,429.3,242.5,426.4,242.5z"/>
</g>
</svg>
